packages/tokens/icons/sfArticle/size32Px.svg

<svg viewBox="0 0 32 32" fill="none" xmlns="http://www.w3.org/2000/svg" width="1em" height="1em"><rect x="6.5" y="4.5" width="19" height="23" rx="1.5" stroke="currentColor"/><path d="M9.5 18.5L22.5 18.5M9.5 21.5L22.5 21.5M9.5 24.5H17.5" stroke="currentColor" stroke-linecap="round"/><path d="M15.0338 7.19712C15.4565 6.9148 15.9672 6.75024 16.5154 6.75024C17.3365 6.75024 18.0729 7.11896 18.5569 7.70016C18.8292 7.62426 19.1165 7.58368 19.413 7.58368C21.0988 7.58368 22.5 8.9017 22.5 10.5692C22.5 12.2367 21.099 13.5547 19.4133 13.5549C19.4132 13.5549 19.4131 13.5549 19.413 13.5549V13.0549C19.2419 13.055 19.0712 13.0388 18.9034 13.0065L15.0338 7.19712ZM15.0338 7.19712C14.5303 6.76214 13.8652 6.5 13.1405 6.5C11.6011 6.5 10.3097 7.69304 10.3097 9.21686C10.3097 9.45378 10.3415 9.68379 10.401 9.903C9.85433 10.3453 9.5 11.0134 9.5 11.7682C9.5 13.1269 10.6389 14.1957 12.0029 14.1957C12.0423 14.1957 12.0815 14.1948 12.1205 14.1931C12.579 14.9794 13.4518 15.5 14.4393 15.5C15.3573 15.5 16.1754 15.0506 16.6545 14.3563C16.8461 14.4039 17.0467 14.4292 17.2528 14.4292C18.0134 14.4292 18.6974 14.0859 19.1378 13.5431L15.0338 7.19712Z" stroke="currentColor"/></svg>

<svg xmlns="http://www.w3.org/2000/svg" fill="none" viewBox="0 0 32 32" width="1em" height="1em"><rect width="19" height="23" x="6.5" y="4.5" stroke="currentColor" rx="1.5"/><path stroke="currentColor" stroke-linecap="round" d="M9.5 18.5h13m-13 3h13m-13 3h8"/><path stroke="currentColor" d="M15.034 7.197a2.66 2.66 0 0 1 1.481-.447 2.65 2.65 0 0 1 2.042.95c.272-.076.56-.116.856-.116 1.686 0 3.087 1.318 3.087 2.985 0 1.668-1.401 2.986-3.087 2.986v-.5c-.171 0-.342-.016-.51-.048l-3.87-5.81Zm0 0A2.89 2.89 0 0 0 13.14 6.5c-1.539 0-2.83 1.193-2.83 2.717 0 .237.031.467.091.686a2.394 2.394 0 0 0-.901 1.865c0 1.359 1.139 2.428 2.503 2.428.04 0 .079-.001.117-.003a2.676 2.676 0 0 0 2.32 1.307c.917 0 1.735-.45 2.214-1.144.192.048.393.073.599.073.76 0 1.444-.343 1.885-.886l-4.104-6.346Z"/></svg>
